images/step4.svg

<svg width="32" height="32" viewBox="0 0 32 32" fill="none" xmlns="http://www.w3.org/2000/svg">
<path d="M26.5 16.5998C26.5289 16.5742 26.5469 16.5383 26.55 16.4998V8.4998C26.55 7.67763 26.2234 6.88914 25.642 6.30777C25.0607 5.72641 24.2722 5.3998 23.45 5.3998H23V4.5498C23 3.88676 22.7366 3.25088 22.2678 2.78204C21.7989 2.3132 21.1631 2.0498 20.5 2.0498C19.837 2.0498 19.2011 2.3132 18.7323 2.78204C18.2634 3.25088 18 3.88676 18 4.5498V5.3998H10.8V4.5498C10.8 3.88676 10.5366 3.25088 10.0678 2.78204C9.59895 2.3132 8.96306 2.0498 8.30002 2.0498C7.63698 2.0498 7.00109 2.3132 6.53225 2.78204C6.06341 3.25088 5.80002 3.88676 5.80002 4.5498V5.3998H5.40002C4.99525 5.39975 4.59451 5.48027 4.22117 5.63666C3.84783 5.79305 3.50935 6.0222 3.22547 6.31073C2.94159 6.59927 2.71798 6.94143 2.56768 7.31726C2.41737 7.69309 2.34338 8.09508 2.35002 8.4998V22.7998C2.34338 23.2045 2.41737 23.6065 2.56768 23.9823C2.71798 24.3582 2.94159 24.7003 3.22547 24.9889C3.50935 25.2774 3.84783 25.5066 4.22117 25.6629C4.59451 25.8193 4.99525 25.8999 5.40002 25.8998H15.75C16.2448 26.91 16.9649 27.7931 17.8548 28.4812C18.7447 29.1692 19.7807 29.6439 20.8829 29.8685C21.9851 30.0931 23.1241 30.0618 24.2123 29.7769C25.3005 29.492 26.3088 28.9611 27.1595 28.2251C28.0102 27.4892 28.6806 26.5678 29.1191 25.5319C29.5577 24.496 29.7526 23.3733 29.6889 22.2503C29.6252 21.1272 29.3045 20.0338 28.7517 19.0541C28.1988 18.0745 27.4285 17.2348 26.5 16.5998ZM19.4 4.5498C19.4 4.25807 19.5159 3.97828 19.7222 3.77199C19.9285 3.5657 20.2083 3.4498 20.5 3.4498C20.7918 3.4498 21.0715 3.5657 21.2778 3.77199C21.4841 3.97828 21.6 4.25807 21.6 4.5498V5.3998H19.4V4.5498ZM7.20002 4.5498C7.20002 4.25807 7.31591 3.97828 7.5222 3.77199C7.72849 3.5657 8.00828 3.4498 8.30002 3.4498C8.59176 3.4498 8.87155 3.5657 9.07784 3.77199C9.28413 3.97828 9.40002 4.25807 9.40002 4.5498V5.3998H7.20002V4.5498ZM6.05002 11.4998H20.5C20.6857 11.4998 20.8637 11.5736 20.995 11.7048C21.1263 11.8361 21.2 12.0142 21.2 12.1998C21.2 12.3855 21.1263 12.5635 20.995 12.6948C20.8637 12.8261 20.6857 12.8998 20.5 12.8998H6.05002C5.86437 12.8998 5.68632 12.8261 5.55504 12.6948C5.42377 12.5635 5.35002 12.3855 5.35002 12.1998C5.35002 12.0142 5.42377 11.8361 5.55504 11.7048C5.68632 11.5736 5.86437 11.4998 6.05002 11.4998ZM15.7 16.6998H6.05002C5.86437 16.6998 5.68632 16.6261 5.55504 16.4948C5.42377 16.3635 5.35002 16.1855 5.35002 15.9998C5.35002 15.8142 5.42377 15.6361 5.55504 15.5048C5.68632 15.3736 5.86437 15.2998 6.05002 15.2998H15.7C15.8857 15.2998 16.0637 15.3736 16.195 15.5048C16.3263 15.6361 16.4 15.8142 16.4 15.9998C16.4 16.1855 16.3263 16.3635 16.195 16.4948C16.0637 16.6261 15.8857 16.6998 15.7 16.6998ZM22.3 28.5498C20.9551 28.5461 19.6519 28.0831 18.6061 27.2374C17.5604 26.3917 16.8349 25.2142 16.55 23.8998C16.453 23.3888 16.4028 22.87 16.4 22.3498C16.4491 21.1828 16.8406 20.056 17.5258 19.11C18.2109 18.164 19.1593 17.4406 20.2528 17.0299C21.3462 16.6192 22.5364 16.5394 23.6749 16.8006C24.8134 17.0617 25.8498 17.6521 26.655 18.4983C27.4602 19.3444 27.9986 20.4089 28.203 21.5589C28.4073 22.7089 28.2687 23.8937 27.8043 24.9654C27.34 26.0372 26.5704 26.9486 25.5916 27.586C24.6128 28.2234 23.468 28.5586 22.3 28.5498Z" fill="#2161AB"/>
<path d="M21 22.6667L22.6667 24L25 21" stroke="#2161AB" stroke-width="1.5" stroke-linecap="round" stroke-linejoin="round"/>
</svg>

<svg width="32" height="32" fill="none" xmlns="http://www.w3.org/2000/svg"><path d="M26.5 16.6a.15.15 0 00.05-.1v-8a3.1 3.1 0 00-3.1-3.1H23v-.85a2.5 2.5 0 00-5 0v.85h-7.2v-.85a2.5 2.5 0 00-5 0v.85h-.4a3.05 3.05 0 00-3.05 3.1v14.3a3.05 3.05 0 003.05 3.1h10.35a7.35 7.35 0 1010.75-9.3zM19.4 4.55a1.1 1.1 0 012.2 0v.85h-2.2v-.85zm-12.2 0a1.1 1.1 0 012.2 0v.85H7.2v-.85zM6.05 11.5H20.5a.7.7 0 010 1.4H6.05a.7.7 0 110-1.4zm9.65 5.2H6.05a.7.7 0 110-1.4h9.65a.7.7 0 010 1.4zm6.6 11.85a5.9 5.9 0 01-5.75-4.65 8.558 8.558 0 01-.15-1.55 5.95 5.95 0 115.9 6.2z" fill="#2161AB"/><path d="M21 22.667L22.667 24 25 21" stroke="#2161AB" stroke-width="1.5" stroke-linecap="round" stroke-linejoin="round"/></svg>
